src/assets/outline/ArrowRight2.svg

<svg width="24" height="24" viewBox="0 0 24 24"  xmlns="http://www.w3.org/2000/svg">
<path d="M12 22.75C6.07 22.75 1.25 17.93 1.25 12C1.25 6.07 6.07 1.25 12 1.25C17.93 1.25 22.75 6.07 22.75 12C22.75 17.93 17.93 22.75 12 22.75ZM12 2.75C6.9 2.75 2.75 6.9 2.75 12C2.75 17.1 6.9 21.25 12 21.25C17.1 21.25 21.25 17.1 21.25 12C21.25 6.9 17.1 2.75 12 2.75Z" />
<path d="M14.5 12.75H8.5C8.09 12.75 7.75 12.41 7.75 12C7.75 11.59 8.09 11.25 8.5 11.25H14.5C14.91 11.25 15.25 11.59 15.25 12C15.25 12.41 14.91 12.75 14.5 12.75Z" />
<path d="M12.4999 15.7499C12.3099 15.7499 12.1199 15.6799 11.9699 15.5299C11.6799 15.2399 11.6799 14.7599 11.9699 14.4699L14.4399 11.9999L11.9699 9.52994C11.6799 9.23994 11.6799 8.75994 11.9699 8.46994C12.2599 8.17994 12.7399 8.17994 13.0299 8.46994L16.0299 11.4699C16.3199 11.7599 16.3199 12.2399 16.0299 12.5299L13.0299 15.5299C12.8799 15.6799 12.6899 15.7499 12.4999 15.7499Z" />
</svg>

<?xml version="1.0" encoding="UTF-8"?>
<svg width="24" height="24" viewBox="0 0 24 24" xmlns="http://www.w3.org/2000/svg">
 <path d="m12 22.75c-5.93 0-10.75-4.82-10.75-10.75s4.82-10.75 10.75-10.75 10.75 4.82 10.75 10.75-4.82 10.75-10.75 10.75zm0-20c-5.1 0-9.25 4.15-9.25 9.25s4.15 9.25 9.25 9.25 9.25-4.15 9.25-9.25-4.15-9.25-9.25-9.25z"/>
 <path d="m14.5 12.75h-6c-0.41 0-0.75-0.34-0.75-0.75s0.34-0.75 0.75-0.75h6c0.41 0 0.75 0.34 0.75 0.75s-0.34 0.75-0.75 0.75z"/>
 <path d="m12.5 15.75c-0.19 0-0.38-0.07-0.53-0.22-0.29-0.29-0.29-0.77 0-1.06l2.47-2.47-2.47-2.47c-0.29-0.29-0.29-0.77 0-1.06s0.77-0.29 1.06 0l3 3c0.29 0.29 0.29 0.77 0 1.06l-3 3c-0.15 0.15-0.34 0.22-0.53 0.22z"/>
</svg>
